build/images/jury/line-md.svg

<svg width="709" height="38" viewBox="0 0 709 38" fill="none" xmlns="http://www.w3.org/2000/svg">
<circle cx="3.5" cy="34.5" r="3.5" fill="white"/>
<path d="M482 4H527L547.5 34H705.5" stroke="white"/>
<path d="M227.5 4H183.5L163 34H2" stroke="white"/>
<circle cx="705.5" cy="33.5" r="3.5" fill="white"/>
<g clip-path="url(#clip0_2052_2211)">
<path d="M236.579 5.78678C235.828 6.56395 234.821 6.99872 233.773 6.9985H231L236.21 1.46015C236.645 0.997133 237.162 0.629857 237.73 0.379318C238.299 0.128779 238.909 -0.000109598 239.524 2.01165e-05H242.159L236.579 5.78678ZM249.354 2.01165e-05H246.719C246.103 1.40894e-05 245.494 0.128959 244.925 0.379491C244.356 0.630023 243.84 0.997234 243.404 1.46015L238.193 7.00002H240.967C242.014 7.00039 243.021 6.5656 243.772 5.78829L249.354 2.01165e-05ZM256.547 2.01165e-05H253.912C253.297 1.40894e-05 252.687 0.128959 252.118 0.379491C251.55 0.630023 251.033 0.997234 250.598 1.46015L245.386 7.00002H248.157C249.205 7.00039 250.211 6.5656 250.962 5.78829L256.547 2.01165e-05ZM263.74 2.01165e-05H261.105C260.49 1.40894e-05 259.88 0.128959 259.311 0.379491C258.743 0.630023 258.226 0.997234 257.791 1.46015L252.58 7.00002H255.352C256.4 7.00039 257.407 6.5656 258.158 5.78829L263.74 2.01165e-05ZM270.934 2.01165e-05H268.299C267.683 -0.000109598 267.073 0.128779 266.505 0.379318C265.936 0.629857 265.419 0.997133 264.984 1.46015L259.768 7.00002H262.54C263.588 7.00039 264.595 6.5656 265.346 5.78829L270.934 2.01165e-05ZM278.127 2.01165e-05H275.492C274.876 -0.000109598 274.267 0.128779 273.698 0.379318C273.129 0.629857 272.612 0.997133 272.177 1.46015L266.96 7.00002H269.732C270.78 7.00039 271.787 6.5656 272.538 5.78829L278.127 2.01165e-05ZM285.32 2.01165e-05H282.685C282.067 -0.00180488 281.455 0.126261 280.884 0.376848C280.314 0.627435 279.795 0.995597 279.358 1.46015L274.151 7.00002H276.925C277.973 7.00023 278.979 6.56546 279.73 5.78829L285.32 2.01165e-05ZM292.513 2.01165e-05H289.878C289.261 -0.00180488 288.649 0.126261 288.078 0.376848C287.507 0.627435 286.988 0.995597 286.551 1.46015L281.343 7.00002H284.116C285.164 7.00023 286.171 6.56546 286.922 5.78829L292.513 2.01165e-05ZM299.706 2.01165e-05H297.071C296.454 -0.00168029 295.842 0.126442 295.271 0.377022C294.7 0.627602 294.181 0.995699 293.745 1.46015L288.535 7.00002H291.308C292.356 7.00023 293.363 6.56546 294.114 5.78829L299.706 2.01165e-05ZM306.9 2.01165e-05H304.265C303.647 -0.00184645 303.035 0.1262 302.464 0.37679C301.893 0.627379 301.374 0.995564 300.938 1.46015L295.727 7.00002H298.5C299.548 7.00039 300.555 6.5656 301.305 5.78829L306.9 2.01165e-05ZM314.093 2.01165e-05H311.458C310.84 -0.00184645 310.228 0.1262 309.657 0.37679C309.086 0.627379 308.568 0.995564 308.131 1.46015L302.921 7.00002H305.694C306.742 7.00039 307.748 6.5656 308.499 5.78829L314.093 2.01165e-05ZM321.286 2.01165e-05H318.651C318.033 -0.00180488 317.421 0.126261 316.851 0.376848C316.28 0.627435 315.761 0.995597 315.324 1.46015L310.111 7.00002H312.884C313.931 7.00039 314.938 6.5656 315.689 5.78829L321.286 2.01165e-05ZM328.479 2.01165e-05H325.844C325.229 -0.000109598 324.619 0.128779 324.05 0.379318C323.481 0.629857 322.965 0.997133 322.53 1.46015L317.32 7.00002H320.093C321.141 7.00044 322.147 6.56562 322.898 5.78829L328.479 2.01165e-05ZM335.672 2.01165e-05H333.037C332.422 -0.000109598 331.812 0.128779 331.243 0.379318C330.675 0.629857 330.158 0.997133 329.723 1.46015L324.513 7.00002H327.286C328.334 7.00023 329.341 6.56546 330.092 5.78829L335.672 2.01165e-05ZM342.866 2.01165e-05H340.231C339.615 -2.71252e-05 339.005 0.128899 338.437 0.379433C337.868 0.629968 337.351 0.9972 336.916 1.46015L331.706 7.00002H334.48C335.527 7.00023 336.534 6.56546 337.285 5.78829L342.866 2.01165e-05ZM350.059 2.01165e-05H347.424C346.808 1.40894e-05 346.199 0.128959 345.63 0.379491C345.061 0.630023 344.544 0.997234 344.109 1.46015L338.899 7.00002H341.673C342.721 7.00023 343.727 6.56546 344.478 5.78829L350.059 2.01165e-05ZM357.252 2.01165e-05H354.617C354.001 -5.13278e-05 353.392 0.128867 352.823 0.379405C352.255 0.629944 351.738 0.99719 351.303 1.46015L346.07 7.00002H348.843C349.891 7.00039 350.898 6.5656 351.649 5.78829L357.252 2.01165e-05ZM364.445 2.01165e-05H361.81C361.195 -0.000109598 360.585 0.128779 360.016 0.379318C359.447 0.629857 358.931 0.997133 358.496 1.46015L353.285 7.00002H356.058C357.106 7.00039 358.113 6.5656 358.864 5.78829L364.445 2.01165e-05ZM371.639 2.01165e-05H369.003C368.388 -0.000109598 367.778 0.128779 367.209 0.379318C366.641 0.629857 366.124 0.997133 365.689 1.46015L360.479 7.00002H363.252C364.3 7.00039 365.306 6.5656 366.057 5.78829L371.639 2.01165e-05ZM378.832 2.01165e-05H376.197C375.581 -0.000109598 374.971 0.128779 374.403 0.379318C373.834 0.629857 373.317 0.997133 372.882 1.46015L367.672 7.00002H370.446C371.493 7.00044 372.5 6.56562 373.25 5.78829L378.832 2.01165e-05ZM386.025 2.01165e-05H383.39C382.774 -2.71252e-05 382.165 0.128899 381.596 0.379433C381.027 0.629968 380.51 0.9972 380.075 1.46015L374.865 7.00002H377.639C378.687 7.00023 379.693 6.56546 380.444 5.78829L386.025 2.01165e-05Z" fill="white"/>
</g>
<g clip-path="url(#clip1_2052_2211)">
<path d="M388.579 5.78678C387.828 6.56395 386.821 6.99872 385.773 6.9985H383L388.21 1.46015C388.645 0.997133 389.162 0.629857 389.73 0.379318C390.299 0.128779 390.909 -0.000109598 391.524 2.01165e-05H394.159L388.579 5.78678ZM401.354 2.01165e-05H398.719C398.103 1.40894e-05 397.494 0.128959 396.925 0.379491C396.356 0.630023 395.84 0.997234 395.404 1.46015L390.193 7.00002H392.967C394.014 7.00039 395.021 6.5656 395.772 5.78829L401.354 2.01165e-05ZM408.547 2.01165e-05H405.912C405.297 1.40894e-05 404.687 0.128959 404.118 0.379491C403.55 0.630023 403.033 0.997234 402.598 1.46015L397.386 7.00002H400.157C401.205 7.00039 402.211 6.5656 402.962 5.78829L408.547 2.01165e-05ZM415.74 2.01165e-05H413.105C412.49 1.40894e-05 411.88 0.128959 411.311 0.379491C410.743 0.630023 410.226 0.997234 409.791 1.46015L404.58 7.00002H407.352C408.4 7.00039 409.407 6.5656 410.158 5.78829L415.74 2.01165e-05ZM422.934 2.01165e-05H420.299C419.683 -0.000109598 419.073 0.128779 418.505 0.379318C417.936 0.629857 417.419 0.997133 416.984 1.46015L411.768 7.00002H414.54C415.588 7.00039 416.595 6.5656 417.346 5.78829L422.934 2.01165e-05ZM430.127 2.01165e-05H427.492C426.876 -0.000109598 426.267 0.128779 425.698 0.379318C425.129 0.629857 424.612 0.997133 424.177 1.46015L418.96 7.00002H421.732C422.78 7.00039 423.787 6.5656 424.538 5.78829L430.127 2.01165e-05ZM437.32 2.01165e-05H434.685C434.067 -0.00180488 433.455 0.126261 432.884 0.376848C432.314 0.627435 431.795 0.995597 431.358 1.46015L426.151 7.00002H428.925C429.973 7.00023 430.979 6.56546 431.73 5.78829L437.32 2.01165e-05ZM444.513 2.01165e-05H441.878C441.261 -0.00180488 440.649 0.126261 440.078 0.376848C439.507 0.627435 438.988 0.995597 438.551 1.46015L433.343 7.00002H436.116C437.164 7.00023 438.171 6.56546 438.922 5.78829L444.513 2.01165e-05ZM451.706 2.01165e-05H449.071C448.454 -0.00168029 447.842 0.126442 447.271 0.377022C446.7 0.627602 446.181 0.995699 445.745 1.46015L440.535 7.00002H443.308C444.356 7.00023 445.363 6.56546 446.114 5.78829L451.706 2.01165e-05ZM458.9 2.01165e-05H456.265C455.647 -0.00184645 455.035 0.1262 454.464 0.37679C453.893 0.627379 453.374 0.995564 452.938 1.46015L447.727 7.00002H450.5C451.548 7.00039 452.555 6.5656 453.305 5.78829L458.9 2.01165e-05ZM466.093 2.01165e-05H463.458C462.84 -0.00184645 462.228 0.1262 461.657 0.37679C461.086 0.627379 460.568 0.995564 460.131 1.46015L454.921 7.00002H457.694C458.742 7.00039 459.748 6.5656 460.499 5.78829L466.093 2.01165e-05ZM473.286 2.01165e-05H470.651C470.033 -0.00180488 469.421 0.126261 468.851 0.376848C468.28 0.627435 467.761 0.995597 467.324 1.46015L462.111 7.00002H464.884C465.931 7.00039 466.938 6.5656 467.689 5.78829L473.286 2.01165e-05ZM480.479 2.01165e-05H477.844C477.229 -0.000109598 476.619 0.128779 476.05 0.379318C475.481 0.629857 474.965 0.997133 474.53 1.46015L469.32 7.00002H472.093C473.141 7.00044 474.147 6.56562 474.898 5.78829L480.479 2.01165e-05Z" fill="white"/>
</g>
<defs>
<clipPath id="clip0_2052_2211">
<rect width="155" height="7" fill="white" transform="translate(231)"/>
</clipPath>
<clipPath id="clip1_2052_2211">
<rect width="99" height="7" fill="white" transform="translate(383)"/>
</clipPath>
</defs>
</svg>

<svg width="709" height="38" fill="none" xmlns="http://www.w3.org/2000/svg"><circle cx="3.5" cy="34.5" r="3.5" fill="#fff"/><path d="M482 4h45l20.5 30h158m-478-30h-44L163 34H2" stroke="#fff"/><circle cx="705.5" cy="33.5" r="3.5" fill="#fff"/><g clip-path="url(#clip0_2052_2211)"><path d="M236.579 5.787a3.9 3.9 0 01-2.806 1.212H231l5.21-5.539a4.68 4.68 0 011.52-1.08 4.447 4.447 0 011.794-.38h2.635l-5.58 5.787zM249.354 0h-2.635c-.616 0-1.225.129-1.794.38a4.685 4.685 0 00-1.521 1.08L238.193 7h2.774a3.9 3.9 0 002.805-1.212L249.354 0zm7.193 0h-2.635a4.45 4.45 0 00-1.794.38 4.681 4.681 0 00-1.52 1.08L245.386 7h2.771a3.898 3.898 0 002.805-1.212L256.547 0zm7.193 0h-2.635a4.45 4.45 0 00-1.794.38 4.681 4.681 0 00-1.52 1.08L252.58 7h2.772a3.9 3.9 0 002.806-1.212L263.74 0zm7.194 0h-2.635a4.44 4.44 0 00-1.794.38 4.674 4.674 0 00-1.521 1.08L259.768 7h2.772a3.9 3.9 0 002.806-1.212L270.934 0zm7.193 0h-2.635c-.616 0-1.225.129-1.794.38a4.674 4.674 0 00-1.521 1.08L266.96 7h2.772a3.9 3.9 0 002.806-1.212L278.127 0zm7.193 0h-2.635a4.445 4.445 0 00-1.801.377 4.69 4.69 0 00-1.526 1.083L274.151 7h2.774a3.899 3.899 0 002.805-1.212L285.32 0zm7.193 0h-2.635a4.443 4.443 0 00-1.8.377c-.571.25-1.09.619-1.527 1.083L281.343 7h2.773a3.901 3.901 0 002.806-1.212L292.513 0zm7.193 0h-2.635a4.446 4.446 0 00-1.8.377 4.67 4.67 0 00-1.526 1.083L288.535 7h2.773a3.901 3.901 0 002.806-1.212L299.706 0zm7.194 0h-2.635a4.444 4.444 0 00-1.801.377c-.571.25-1.09.619-1.526 1.083L295.727 7h2.773a3.896 3.896 0 002.805-1.212L306.9 0zm7.193 0h-2.635a4.444 4.444 0 00-1.801.377 4.679 4.679 0 00-1.526 1.083L302.921 7h2.773a3.898 3.898 0 002.805-1.212L314.093 0zm7.193 0h-2.635a4.437 4.437 0 00-1.8.377c-.571.25-1.09.619-1.527 1.083L310.111 7h2.773a3.9 3.9 0 002.805-1.212L321.286 0zm7.193 0h-2.635c-.615 0-1.225.129-1.794.38a4.67 4.67 0 00-1.52 1.08L317.32 7h2.773a3.897 3.897 0 002.805-1.212L328.479 0zm7.193 0h-2.635c-.615 0-1.225.129-1.794.38a4.68 4.68 0 00-1.52 1.08L324.513 7h2.773a3.901 3.901 0 002.806-1.212L335.672 0zm7.194 0h-2.635c-.616 0-1.226.129-1.794.38a4.674 4.674 0 00-1.521 1.08L331.706 7h2.774a3.9 3.9 0 002.805-1.212L342.866 0zm7.193 0h-2.635c-.616 0-1.225.129-1.794.38a4.675 4.675 0 00-1.521 1.08L338.899 7h2.774a3.899 3.899 0 002.805-1.212L350.059 0zm7.193 0h-2.635c-.616 0-1.225.129-1.794.38a4.681 4.681 0 00-1.52 1.08L346.07 7h2.773a3.9 3.9 0 002.806-1.212L357.252 0zm7.193 0h-2.635c-.615 0-1.225.129-1.794.38a4.67 4.67 0 00-1.52 1.08L353.285 7h2.773a3.9 3.9 0 002.806-1.212L364.445 0zm7.194 0h-2.636c-.615 0-1.225.129-1.794.38a4.68 4.68 0 00-1.52 1.08L360.479 7h2.773a3.898 3.898 0 002.805-1.212L371.639 0zm7.193 0h-2.635a4.44 4.44 0 00-1.794.38 4.674 4.674 0 00-1.521 1.08L367.672 7h2.774a3.895 3.895 0 002.804-1.212L378.832 0zm7.193 0h-2.635c-.616 0-1.225.129-1.794.38a4.674 4.674 0 00-1.521 1.08L374.865 7h2.774a3.899 3.899 0 002.805-1.212L386.025 0z" fill="#fff"/></g><g clip-path="url(#clip1_2052_2211)"><path d="M388.579 5.787a3.9 3.9 0 01-2.806 1.212H383l5.21-5.539a4.68 4.68 0 011.52-1.08 4.447 4.447 0 011.794-.38h2.635l-5.58 5.787zM401.354 0h-2.635c-.616 0-1.225.129-1.794.38a4.685 4.685 0 00-1.521 1.08L390.193 7h2.774a3.9 3.9 0 002.805-1.212L401.354 0zm7.193 0h-2.635a4.45 4.45 0 00-1.794.38 4.681 4.681 0 00-1.52 1.08L397.386 7h2.771a3.898 3.898 0 002.805-1.212L408.547 0zm7.193 0h-2.635a4.45 4.45 0 00-1.794.38 4.681 4.681 0 00-1.52 1.08L404.58 7h2.772a3.9 3.9 0 002.806-1.212L415.74 0zm7.194 0h-2.635a4.44 4.44 0 00-1.794.38 4.674 4.674 0 00-1.521 1.08L411.768 7h2.772a3.9 3.9 0 002.806-1.212L422.934 0zm7.193 0h-2.635c-.616 0-1.225.129-1.794.38a4.674 4.674 0 00-1.521 1.08L418.96 7h2.772a3.9 3.9 0 002.806-1.212L430.127 0zm7.193 0h-2.635a4.445 4.445 0 00-1.801.377 4.69 4.69 0 00-1.526 1.083L426.151 7h2.774a3.899 3.899 0 002.805-1.212L437.32 0zm7.193 0h-2.635a4.443 4.443 0 00-1.8.377c-.571.25-1.09.619-1.527 1.083L433.343 7h2.773a3.901 3.901 0 002.806-1.212L444.513 0zm7.193 0h-2.635a4.446 4.446 0 00-1.8.377 4.67 4.67 0 00-1.526 1.083L440.535 7h2.773a3.901 3.901 0 002.806-1.212L451.706 0zm7.194 0h-2.635a4.444 4.444 0 00-1.801.377c-.571.25-1.09.619-1.526 1.083L447.727 7h2.773a3.896 3.896 0 002.805-1.212L458.9 0zm7.193 0h-2.635a4.444 4.444 0 00-1.801.377 4.679 4.679 0 00-1.526 1.083L454.921 7h2.773a3.898 3.898 0 002.805-1.212L466.093 0zm7.193 0h-2.635a4.437 4.437 0 00-1.8.377c-.571.25-1.09.619-1.527 1.083L462.111 7h2.773a3.9 3.9 0 002.805-1.212L473.286 0zm7.193 0h-2.635c-.615 0-1.225.129-1.794.38a4.67 4.67 0 00-1.52 1.08L469.32 7h2.773a3.897 3.897 0 002.805-1.212L480.479 0z" fill="#fff"/></g><defs><clipPath id="clip0_2052_2211"><path fill="#fff" transform="translate(231)" d="M0 0h155v7H0z"/></clipPath><clipPath id="clip1_2052_2211"><path fill="#fff" transform="translate(383)" d="M0 0h99v7H0z"/></clipPath></defs></svg>
